X:133
T:Little Judique
M:C|
L:1/8
K:D
"D"a^gab a2f2 | d2A2 A2fg | a^gab a2f2 | d6 ef |
"A7"gfga g2e2 | c2A2 c2ef | gfga g2e2 | c4 f3g |
"D"a^gab a2f2 | d2A2 A2fg | a^gab a2f2 | d4 g3a |
"G"b2gb "D"a2fa | "A"g2eg  "D"f2ed | "A7"c2Ac  a2c2 | "D"d4 "E7"c3d ||
K:A
|:"A"e4 e3f | e2c2 B2A2 | "D"agab a2f2 | "A"e4 f3g |
"D"a3b a2f2 | "A"e2c2 a2 f2 | [1 "E7"e2c2 B2A2 | B4 B2cd :| [2 "E7"e2c2 B2c2 | "A"A4 f3=g |]
